X:1
T:Title
%%score { ( 1 4 ) | ( 2 3 5 ) }
L:1/8
Q:1/4=90
M:6/8
K:D
V:1 treble nm="Grand Piano"
V:4 treble 
V:2 bass 
V:3 bass 
V:5 bass 
V:1
 ABA FED | F2 D B,2 A, | z EF BAF | F2 E [CE]2- [G,CE] | ABA FED | [A,DF]2 D [G,B,]2 A, | %6
w: Charles~H.~Gabriel * * * * *||||||
 DCD [FA]GF | E2 F[K:bass] .[F,D]3 | [CE][K:treble]BB [GB]cB | B2 E .B3 | DAA ABF | A2 A .A3 | %12
w: ||||||
 Bcd Bcd | [FA]2 B A2 F | DCD [FA]GF | E2 F .D3 |] %16
w: ||||
V:2
 [D,D]-[D,-G,D-][D,-F,D-] [D,-A,D-][D,-G,D][D,-F,] | [D,-A,D]2 [D,-F,] [D,-G,]2 [D,-F,] | %2
 [D,-F,][D,-A,][D,-A,] [D,-G,][D,-F,][D,A,] | B,,2 E, A,,3 | %4
 [D,D]-[D,-G,D-][D,-F,D-] [D,-A,D-][D,-G,D][D,F,] | z2 F, z2 F, | %6
 [B,,F,]2 [^A,,G,] A,-[A,-E][A,D] | C2- [A,C] .D,3 | z GG z GG | [CG]2 [A,C] .[CG]3 | %10
 z [DF][DF] [DF][DF]D | [DF]2 [DF] .[DF]3 | [DG][DA][DB] GAB | z2 G F2[K:bass] [D,A,D] | z3 A,3 | %15
 .G,3 z3 |] %16
V:3
 .F,3 z3 | x6 | x6 | x6 | .F,3 z3 | D,3 D,3 | x6 | .G,3 z3 | z3 C3 | x6 | D,6- | D,6 | z3 D3 | %13
 [D,D]6[K:bass] | [B,,F,]2 [^A,,^G,] =A,,-[A,,-E][A,,-D] | [A,,C]2- [A,,A,C] .[D,F,]3 |] %16
V:4
 x6 | x6 | D6 | [G,D]3 .A,3 | x6 | x6 | x6 | x3[K:bass] x3 | A,3[K:treble] z3 | x6 | x6 | x6 | x6 | %13
 x6 | x6 | x6 |] %16
V:5
 x6 | x6 | x6 | x6 | x6 | x6 | z3 =A,,3- | A,,3 z3 | A,,6- | A,,6 | x6 | x6 | G,6 | x5[K:bass] x | %14
 x6 | x6 |] %16

